svgs/light/code-pull-request.svg

<svg xmlns="http://www.w3.org/2000/svg" viewBox="0 0 512 512"><!--! Font Awesome Pro 6.1.1 by @fontawesome - https://fontawesome.com License - https://fontawesome.com/license (Commercial License) Copyright 2022 Fonticons, Inc. --><path d="M323.8 5.237C329.8 11.78 329.3 21.9 322.8 27.84L265.4 80H336C397.9 80 448 130.1 448 192V353.6C484.5 361 512 393.3 512 432C512 476.2 476.2 512 432 512C387.8 512 352 476.2 352 432C352 393.3 379.5 361 416 353.6V192C416 147.8 380.2 112 336 112H265.4L322.8 164.2C329.3 170.1 329.8 180.2 323.8 186.8C317.9 193.3 307.8 193.8 301.2 187.8L213.2 107.8C209.9 104.8 208 100.5 208 96C208 91.49 209.9 87.19 213.2 84.16L301.2 4.161C307.8-1.783 317.9-1.301 323.8 5.237V5.237zM432 384C405.5 384 384 405.5 384 432C384 458.5 405.5 480 432 480C458.5 480 480 458.5 480 432C480 405.5 458.5 384 432 384zM96 353.6C132.5 361 160 393.3 160 432C160 476.2 124.2 512 80 512C35.82 512 0 476.2 0 432C0 393.3 27.48 361 64 353.6V158.4C27.48 150.1 0 118.7 0 80C0 35.82 35.82 0 80 0C124.2 0 160 35.82 160 80C160 118.7 132.5 150.1 96 158.4V353.6zM80 32C53.49 32 32 53.49 32 80C32 106.5 53.49 128 80 128C106.5 128 128 106.5 128 80C128 53.49 106.5 32 80 32zM80 384C53.49 384 32 405.5 32 432C32 458.5 53.49 480 80 480C106.5 480 128 458.5 128 432C128 405.5 106.5 384 80 384z"/></svg>

<svg xmlns="http://www.w3.org/2000/svg" viewBox="0 0 512 512"><!--! Font Awesome Pro 6.4.2 by @fontawesome - https://fontawesome.com License - https://fontawesome.com/license (Commercial License) Copyright 2023 Fonticons, Inc. --><path d="M323.8 5.2c5.9 6.5 5.5 16.7-1.1 22.6L265.4 80H336c61.9 0 112 50.1 112 112V353.6c36.5 7.4 64 39.7 64 78.4c0 44.2-35.8 80-80 80s-80-35.8-80-80c0-38.7 27.5-71 64-78.4V192c0-44.2-35.8-80-80-80H265.4l57.4 52.2c6.5 5.9 7 16.1 1.1 22.6s-16.1 7-22.6 1.1l-88-80c-3.3-3-5.2-7.3-5.2-11.8s1.9-8.8 5.2-11.8l88-80c6.5-5.9 16.7-5.5 22.6 1.1zM432 384a48 48 0 1 0 0 96 48 48 0 1 0 0-96zM128 80A48 48 0 1 0 32 80a48 48 0 1 0 96 0zM96 158.4V353.6c36.5 7.4 64 39.7 64 78.4c0 44.2-35.8 80-80 80s-80-35.8-80-80c0-38.7 27.5-71 64-78.4V158.4C27.5 151 0 118.7 0 80C0 35.8 35.8 0 80 0s80 35.8 80 80c0 38.7-27.5 71-64 78.4zM128 432a48 48 0 1 0 -96 0 48 48 0 1 0 96 0z"/></svg>
